static/images/uploads/christmas.svg

<?xml version="1.0" encoding="UTF-8"?>
<svg width="16px" height="30px" viewBox="0 0 16 30" version="1.1" xmlns="http://www.w3.org/2000/svg" xmlns:xlink="http://www.w3.org/1999/xlink">
    <!-- Generator: Sketch 50.2 (55047) - http://www.bohemiancoding.com/sketch -->
    <title>christmas</title>
    <desc>Created with Sketch.</desc>
    <defs>
        <polygon id="path-1" points="0 0 16 0 16 30 0 30"></polygon>
    </defs>
    <g id="-" stroke="none" stroke-width="1" fill="none" fill-rule="evenodd">
        <g id="Parent-Private-Charters" transform="translate(-712.000000, -1534.000000)">
            <g id="Group-32" transform="translate(0.000000, 1230.000000)">
                <g id="Group-15" transform="translate(556.000000, 304.000000)">
                    <g id="christmas" transform="translate(156.000000, 0.000000)">
                        <mask id="mask-2" fill="white">
                            <use xlink:href="#path-1"></use>
                        </mask>
                        <g id="Clip-2"></g>
                        <path d="M1.71840911,20.5732161 L5.06175228,14.9072398 L10.9366932,14.9072398 L14.2795923,20.5732161 L1.71840911,20.5732161 Z M7.1301933,28.7687005 L8.86869622,28.7687005 L8.86869622,21.8045156 L7.1301933,21.8045156 L7.1301933,28.7687005 Z M6.20610017,8.68730901 L9.79145715,8.68730901 L12.7355885,13.6759403 L3.26285692,13.6759403 L6.20610017,8.68730901 Z M7.99922273,1.84781822 L11.3083731,7.45557503 L4.69007234,7.45557503 L7.99922273,1.84781822 Z M15.9155169,20.8808238 L12.3905523,14.9072398 L13.8257609,14.9072398 C14.0509003,14.9072398 14.2587214,14.7894973 14.3710691,14.5991977 C14.4834168,14.408898 14.4834168,14.1738476 14.3710691,13.9835479 L11.2457604,8.68687454 L12.3989895,8.68687454 L12.4078707,8.68687454 C12.7555713,8.68687454 13.0375507,8.4109835 13.0375507,8.07122478 C13.0375507,7.92437255 12.9851514,7.78968559 12.8976712,7.68367391 L8.54497498,0.308042115 C8.43262729,0.117742473 8.22480625,0 7.99966679,0 C7.77497139,0 7.56715035,0.117742473 7.45435859,0.308042115 L3.05547994,7.76318267 C2.94313224,7.95348231 2.94313224,8.18853278 3.05547994,8.37883242 C3.16782764,8.56913207 3.37564868,8.68687454 3.60078814,8.68687454 L4.75357321,8.68687454 L1.62826452,13.9835479 C1.51591682,14.1738476 1.51591682,14.408898 1.62826452,14.5991977 C1.74061221,14.7894973 1.94843325,14.9072398 2.17357271,14.9072398 L3.60922532,14.9072398 L0.0842607737,20.8808238 C-0.0280869246,21.0711234 -0.0280869246,21.3061739 0.0842607737,21.4964735 C0.196608472,21.6872076 0.404429511,21.8040812 0.629568969,21.8040812 L5.87260958,21.8040812 L5.87260958,29.3843502 C5.87260958,29.7245434 6.15458898,30 6.5018455,30 L9.49882026,30 C9.84652085,30 10.1280562,29.7245434 10.1280562,29.3843502 L10.1280562,21.8040812 L15.3706527,21.8040812 C15.5957922,21.8040812 15.8036132,21.6872076 15.9159609,21.4964735 C16.0283086,21.3066084 16.0278646,21.0711234 15.9155169,20.8808238 Z" id="Fill-1" fill="#413F47" mask="url(#mask-2)"></path>
                    </g>
                </g>
            </g>
        </g>
    </g>
</svg>

<svg width="16" height="30" xmlns="http://www.w3.org/2000/svg" xmlns:xlink="http://www.w3.org/1999/xlink"><defs><path id="a" d="M0 0h16v30H0z"/></defs><g fill="none" fill-rule="evenodd"><mask id="b" fill="#fff"><use xlink:href="#a"/></mask><path d="M1.718 20.573l3.344-5.666h5.875l3.343 5.666H1.718zM7.13 28.77H8.87v-6.964H7.13v6.964zM6.206 8.687h3.585l2.945 4.989H3.263l2.943-4.989zM8 1.847l3.31 5.609H4.69L8 1.848zm7.917 19.034l-3.525-5.974h1.435a.633.633 0 0 0 .545-.308.604.604 0 0 0 0-.615l-3.125-5.297h1.162c.348 0 .63-.276.63-.616a.606.606 0 0 0-.14-.387L8.545.308A.633.633 0 0 0 8 0a.634.634 0 0 0-.546.308L3.055 7.763a.604.604 0 0 0 0 .616c.113.19.32.308.546.308h1.153l-3.126 5.297a.604.604 0 0 0 0 .615c.113.19.32.308.546.308h1.435L.084 20.881a.604.604 0 0 0 0 .615c.113.191.32.308.546.308h5.243v7.58c0 .34.282.616.629.616h2.997c.348 0 .63-.275.63-.616v-7.58h5.242a.631.631 0 0 0 .545-.308.604.604 0 0 0 0-.615z" fill="#413F47" mask="url(#b)"/></g></svg>
